src/topics/icons/onesignal.svg

<svg height="236" preserveAspectRatio="xMidYMid" viewBox="0 0 256 236" width="256" xmlns="http://www.w3.org/2000/svg"><path d="m128.343773 0c-70.7625126 0-128.343773 57.5812604-128.343773 128.343773 0 45.093758 23.5875043 84.637515 58.2750105 107.53127 2.0812504-1.387501 4.1625008-2.775001 6.2437512-4.162501 1.3875002-.69375 3.4687506-2.081251 4.8562508-2.775001 2.0812504-.69375 4.1625008-2.08125 5.550001-2.775 2.0812504-.69375 4.1625008-1.3875 6.2437512-2.775001 1.3875002-.69375 3.4687506-1.3875 4.8562508-2.08125 2.0812504-.69375 4.8562509-1.3875 6.9375013-2.08125 2.0812504-.693751 3.4687506-.693751 5.550001-1.387501 2.0812502-.69375 3.4687502-.69375 5.5500012-1.3875 2.08125-.69375 4.162501-.69375 6.243751-.69375 2.08125 0 4.856251-.69375 6.937501-.69375v-8.325002-6.937501-28.443755-6.937501-25.668755h-6.937501v-13.875002h6.937501 20.812504 6.937501v37.462506 7.631252 29.137505 6.937501 10.406252c19.425004 2.775001 36.768757 9.712502 52.72501 19.425004 35.381256-22.893755 58.27501-62.437512 58.27501-107.53127.69375-70.7625126-56.88751-128.343773-127.650023-128.343773zm38.156257 128.343773c0-20.812504-17.343753-38.1562567-38.156257-38.1562567s-38.1562567 17.3437527-38.1562567 38.1562567c0 14.568753 8.3250015 27.750005 20.8125037 33.993756v7.631252c-15.9562528-6.937502-27.750005-22.893754-27.750005-41.625008 0-24.975004 20.118754-45.093758 45.093758-45.093758 24.975005 0 45.093758 20.118754 45.093758 45.093758 0 15.956253-8.325001 29.831256-20.812503 38.156257v-8.325001c8.325001-7.631252 13.875002-18.037504 13.875002-29.831256zm-13.875002 75.618764v-7.631252c28.443755-9.712501 48.562508-36.768756 48.562508-68.681262 0-39.5437571-32.606256-72.150013-72.843763-72.150013-40.2375071 0-72.843763 32.6062559-72.843763 72.843763 0 33.993756 23.5875043 63.131262 55.50001 70.762513v6.937501c-35.3812563-7.631251-62.4375112-39.543757-62.4375112-77.700014 0-44.4000078 35.3812564-79.7812642 79.7812642-79.7812642 44.400008 0 79.781265 35.3812564 79.781265 79.7812642 0 35.381257-23.587505 65.906262-55.50001 75.618764z" fill="#e44a49"/></svg>

<?xml version="1.0" encoding="UTF-8" standalone="no"?>
<svg width="256px" height="236px" viewBox="0 0 256 236" version="1.1" xmlns="http://www.w3.org/2000/svg" xmlns:xlink="http://www.w3.org/1999/xlink" preserveAspectRatio="xMidYMid">
    <g>
        <path d="M128.343773,0 C57.5812604,0 0,57.5812604 0,128.343773 C0,173.437531 23.5875043,212.981288 58.2750105,235.875043 C60.3562609,234.487542 62.4375113,233.100042 64.5187617,231.712542 C65.9062619,231.018792 67.9875123,229.631291 69.3750125,228.937541 C71.4562629,228.243791 73.5375133,226.856291 74.9250135,226.162541 C77.0062639,225.468791 79.0875143,224.775041 81.1687647,223.38754 C82.5562649,222.69379 84.6375153,222.00004 86.0250155,221.30629 C88.1062659,220.61254 90.8812664,219.91879 92.9625168,219.22504 C95.0437672,218.531289 96.4312674,218.531289 98.5125178,217.837539 C100.593768,217.143789 101.981268,217.143789 104.062519,216.450039 C106.143769,215.756289 108.22502,215.756289 110.30627,215.756289 L110.30627,215.756289 C112.38752,215.756289 115.162521,215.062539 117.243771,215.062539 L117.243771,215.062539 L117.243771,206.737537 L117.243771,199.800036 L117.243771,171.356281 L117.243771,164.41878 L117.243771,138.750025 L110.30627,138.750025 L110.30627,124.875023 L117.243771,124.875023 L138.056275,124.875023 L144.993776,124.875023 L144.993776,162.337529 L144.993776,169.968781 L144.993776,199.106286 L144.993776,206.043787 L144.993776,216.450039 C164.41878,219.22504 181.762533,226.162541 197.718786,235.875043 L197.718786,235.875043 C233.100042,212.981288 255.993796,173.437531 255.993796,128.343773 C256.687546,57.5812604 199.106286,0 128.343773,0 L128.343773,0 Z M166.50003,128.343773 C166.50003,107.531269 149.156277,90.1875163 128.343773,90.1875163 C107.531269,90.1875163 90.1875163,107.531269 90.1875163,128.343773 C90.1875163,142.912526 98.5125178,156.093778 111.00002,162.337529 L111.00002,169.968781 C95.0437672,163.031279 83.250015,147.075027 83.250015,128.343773 C83.250015,103.368769 103.368769,83.250015 128.343773,83.250015 C153.318778,83.250015 173.437531,103.368769 173.437531,128.343773 C173.437531,144.300026 165.11253,158.175029 152.625028,166.50003 L152.625028,158.175029 C160.950029,150.543777 166.50003,140.137525 166.50003,128.343773 L166.50003,128.343773 Z M152.625028,203.962537 L152.625028,196.331285 C181.068783,186.618784 201.187536,159.562529 201.187536,127.650023 C201.187536,88.1062659 168.58128,55.50001 128.343773,55.50001 C88.1062659,55.50001 55.50001,88.1062659 55.50001,128.343773 C55.50001,162.337529 79.0875143,191.475035 111.00002,199.106286 L111.00002,206.043787 C75.6187637,198.412536 48.5625088,166.50003 48.5625088,128.343773 C48.5625088,83.9437652 83.9437652,48.5625088 128.343773,48.5625088 C172.743781,48.5625088 208.125038,83.9437652 208.125038,128.343773 C208.125038,163.72503 184.537533,194.250035 152.625028,203.962537 L152.625028,203.962537 Z" fill="#E44A49"></path>
    </g>
</svg>
